icons/svg/twitter.svg

﻿<?xml version="1.0" encoding="utf-8"?>
<!DOCTYPE svg PUBLIC "-//W3C//DTD SVG 1.1//EN" "http://www.w3.org/Graphics/SVG/1.1/DTD/svg11.dtd">
<svg xmlns="http://www.w3.org/2000/svg" xmlns:xlink="http://www.w3.org/1999/xlink" version="1.1" baseProfile="full" width="24" height="24" viewBox="0 0 24.00 24.00" enable-background="new 0 0 24.00 24.00" xml:space="preserve">
	<path fill="#000000" fill-opacity="1" stroke-width="0.2" stroke-linejoin="round" d="M 22.4592,6.01238C 21.6896,6.35373 20.8624,6.58442 19.9944,6.68815C 20.8803,6.15701 21.5609,5.31598 21.8813,4.31378C 21.052,4.80564 20.1336,5.16278 19.156,5.3552C 18.3732,4.52112 17.2579,4 16.0235,4C 13.6534,4 11.7317,5.92147 11.7317,8.29155C 11.7317,8.6279 11.7697,8.95546 11.8429,9.2696C 8.2761,9.0906 5.11376,7.38203 2.9971,4.78551C 2.62766,5.41935 2.41602,6.15656 2.41602,6.94309C 2.41602,8.43204 3.17365,9.74563 4.32524,10.5153C 3.6218,10.4929 2.95997,10.2999 2.3814,9.97846C 2.38099,9.99639 2.38099,10.0143 2.38099,10.0324C 2.38099,12.1118 3.86034,13.8463 5.8236,14.2406C 5.4635,14.3387 5.08435,14.3912 4.69295,14.3912C 4.41641,14.3912 4.14756,14.3642 3.88547,14.3142C 4.43162,16.0191 6.01654,17.26 7.89455,17.2945C 6.42577,18.4457 4.57528,19.1318 2.56454,19.1318C 2.21813,19.1318 1.87652,19.1114 1.54078,19.0717C 3.44004,20.2894 5.69592,21 8.11951,21C 16.0134,21 20.3302,14.4605 20.3302,8.78918C 20.3302,8.60314 20.326,8.41805 20.3177,8.23395C 21.1563,7.62886 21.8839,6.87302 22.4592,6.01238 Z "/>
</svg>

<svg xmlns="http://www.w3.org/2000/svg" version="1.1" baseProfile="full" width="24" height="24" viewBox="0 0 24.00 24.00" xml:space="preserve"><path fill="#000" fill-opacity="1" stroke-width=".2" stroke-linejoin="round" d="M22.46 6.012c-.77.342-1.598.572-2.466.676.886-.53 1.567-1.372 1.887-2.374-.828.492-1.746.85-2.724 1.04C18.373 4.522 17.258 4 16.023 4c-2.37 0-4.29 1.92-4.29 4.292 0 .336.037.663.11.978-3.567-.18-6.73-1.888-8.846-4.484-.37.633-.58 1.37-.58 2.157 0 1.49.757 2.803 1.908 3.572-.703-.022-1.365-.215-1.944-.537v.054c0 2.08 1.48 3.814 3.444 4.21-.36.097-.74.15-1.13.15-.278 0-.546-.028-.81-.078.548 1.705 2.133 2.946 4.01 2.98-1.468 1.152-3.32 1.838-5.33 1.838-.346 0-.687-.02-1.023-.06C3.44 20.29 5.697 21 8.12 21c7.893 0 12.21-6.54 12.21-12.21 0-.187-.004-.372-.012-.556.838-.605 1.566-1.36 2.14-2.222z"/></svg>
